X:1
T:Title
%%score { ( 1 3 ) | ( 2 4 ) }
L:1/8
Q:1/4=100
M:4/4
K:Bb
V:1 treble nm="Grand Piano"
V:3 treble 
V:2 bass 
V:4 bass 
V:1
 B>F DE F B3 | d>c BA [DB]2 [DF][DF] | [EG]2 [EG]2 [=Ec][GB][FA][EG] |[M:9/8] F2 G- G A2- AFF | %4
w: John~R.~Sweney * * * * *||||
[M:4/4] B2 [DB]2 [DB][DF][FB]c | d2 d2 d2 [Fd][Fd] | [Ec]2 [Fd]2 [Ge][Ge][Fd]c | B2 A2 [DB]4 | %8
w: ||||
 [DB]6[K:bass][K:treble] z2 | [Fd]4 [DFB]4 | [GB]6 z2 | [DF]6 z2 | [EA]6 z2 | %13
w: |||||
 [DB]4[K:bass][K:treble] z4 | [=Ec]6 z2 | F8 | B6[K:bass][K:treble] z2 | [Fd]4 [DFB]4 | [GB]6 z2 | %19
w: ||||||
 [DF]6 z2 |[M:17/16] B-<B[DB]-<[DB][EB][EA]3/2FA | c-<cc-<c[Ec][DB]3/2FB | %22
w: |||
[M:4/4] d2 [_Af]2 [Gf][Ge][Gd][Gc] | [FB]2 [EA]2 [DB]4 |] %24
w: ||
V:2
 B,>F, D,E, F, B,3 | [F,B,F]>[F,EF] [F,DF][F,CE] [B,,B,]2 [B,,B,][B,,B,] | %2
 [E,B,]2 [E,B,]2 [C,C][C,C][C,C][C,B,] | %3
[M:9/8] [F,A,]2 [F,B,=E]- [F,B,E] [F,C_E]2- [F,CE][F,CE][F,CE] | %4
[M:4/4] [B,D]2 [B,,F,]2 [B,,F,][B,,B,][D,B,][K:treble][F,A,F] | %5
 [B,F]2 [B,F]2 [B,F]2[K:bass] [B,,B,][B,,B,] | [E,G,]2 [D,=B,]2 [C,C][C,C][D,_B,][E,G,E] | %7
 [F,D]2 [F,C]2 [B,,F,]4 | [B,,F,]>B,, B,,>B,, B,,>B,, D,>[F,A,] | B,2 B,2 B,4 | %10
 E,>E, E,>E, E,>E, E,>E, | B,,2 B,,2 B,,2 z2 | F,>F, F,>F, F,>[F,CE] [F,B,E]>[F,A,E] | %13
 [B,,B,]2 z2 [B,,B,]4 | [C,G,]>C, C,>C, C,>[C,C] [C,C]>[C,B,] | [F,A,]2 [G,B,]2 [A,C]4 | D6 z2 | %17
 B,2 B,2 B,4 | E,>E, E,>E, E,>E, E,>E, | B,,2 B,,2 B,,2 D,F, | %20
[M:17/16] B,-<B,[B,,F,]-<[B,,F,][C,F,][C,F,]3/2F,A, | C-<C[F,A,E]-<[F,A,E][B,,F,][B,,F,]3/2F,B, | %22
[M:4/4] D2 [D,B,]2 [E,B,][E,B,][E,E][E,E] | [F,D]2 [F,C]2 [B,,B,]4 |] %24
V:3
 x8 | x8 | x8 |[M:9/8] x9 |[M:4/4] x8 | x8 | x8 | x8 | %8
 z z/[K:bass] F,/ F,>F, F,>[K:treble][B,DF] [B,FB]>[Fc] | x8 | E>E E>E E>[EGB] [B,FA]>[B,EG] | %11
 B,2 B,2 B,2 z2 | C>C C>C C>A G>F | z2[K:bass] [B,,F,]2[K:treble] [Fd]4 | %14
 z z/ G,/ G,>G, G,>[GB] [FA]>[=EG] | z2 D2 E4 | %16
 z z/[K:bass] F,/ F,>F, F,>[K:treble][B,DF] [B,FB]>[Fc] | x8 | E>E E>E E>[EGB] [B,FA]>[B,EG] | %19
 B,2 B,2 B,2 DF |[M:17/16] x17/2 | x17/2 |[M:4/4] x8 | x8 |] %24
V:4
 x8 | x8 | x8 |[M:9/8] x9 |[M:4/4] x7[K:treble] x | x6[K:bass] x2 | x8 | x8 | x8 | x8 | x8 | x8 | %12
 x8 | x8 | x8 | x8 | B,>B,, B,,>B,, B,,>B,, D,>[F,A,] | x8 | x8 | x8 |[M:17/16] x17/2 | x17/2 | %22
[M:4/4] x8 | x8 |] %24

